src/components/00-materials/images-raw/Goods Transport.svg

<svg width="96" height="96" viewBox="0 0 96 96" fill="none" xmlns="http://www.w3.org/2000/svg">
<path d="M28.62 64.46H63.14M30.48 69.77H61.27H30.48Z" stroke="#00008F" stroke-width="2" stroke-linecap="round" stroke-linejoin="round"/>
<path d="M21.99 78.26C26.6789 78.26 30.48 74.4589 30.48 69.77C30.48 65.0811 26.6789 61.28 21.99 61.28C17.3011 61.28 13.5 65.0811 13.5 69.77C13.5 74.4589 17.3011 78.26 21.99 78.26Z" stroke="#00008F" stroke-width="2" stroke-linecap="round" stroke-linejoin="round"/>
<path d="M21.99 72.9601C23.7518 72.9601 25.18 71.5319 25.18 69.7701C25.18 68.0083 23.7518 66.5801 21.99 66.5801C20.2283 66.5801 18.8 68.0083 18.8 69.7701C18.8 71.5319 20.2283 72.9601 21.99 72.9601Z" stroke="#00008F" stroke-width="2" stroke-linecap="round" stroke-linejoin="round"/>
<path d="M69.77 78.26C74.4589 78.26 78.26 74.4589 78.26 69.77C78.26 65.0811 74.4589 61.28 69.77 61.28C65.0811 61.28 61.28 65.0811 61.28 69.77C61.28 74.4589 65.0811 78.26 69.77 78.26Z" stroke="#00008F" stroke-width="2" stroke-linecap="round" stroke-linejoin="round"/>
<path d="M69.77 72.9601C71.5317 72.9601 72.96 71.5319 72.96 69.7701C72.96 68.0083 71.5317 66.5801 69.77 66.5801C68.0082 66.5801 66.58 68.0083 66.58 69.7701C66.58 71.5319 68.0082 72.9601 69.77 72.9601Z" stroke="#00008F" stroke-width="2" stroke-linecap="round" stroke-linejoin="round"/>
<path d="M78.26 69.7701H88.35C89.0537 69.7674 89.7278 69.486 90.2244 68.9874C90.7211 68.4889 91 67.8138 91 67.1101C91 66.4072 90.7208 65.7332 90.2238 65.2362C89.7269 64.7392 89.0528 64.4601 88.35 64.4601H76.35M13.49 69.7701H7.65C6.94626 69.7674 6.27224 69.486 5.77556 68.9874C5.27887 68.4889 5 67.8138 5 67.1101C5 66.4072 5.2792 65.7332 5.77617 65.2362C6.27314 64.7392 6.94718 64.4601 7.65 64.4601H15.36M88.88 64.4601V50.6501L83.19 32.1601C82.3788 29.5209 80.7423 27.2117 78.521 25.5718C76.2998 23.932 73.611 23.0481 70.85 23.0501H57V64.4601" stroke="#00008F" stroke-width="2" stroke-linecap="round" stroke-linejoin="round"/>
<path d="M7.12 64.46V23.05C7.12 21.6417 7.67944 20.2911 8.67526 19.2953C9.67108 18.2994 11.0217 17.74 12.43 17.74H51.72C53.1239 17.7453 54.4684 18.3074 55.4583 19.3029C56.4482 20.2985 57.0027 21.6461 57 23.05M88.88 52.78H85.69C85.269 52.78 84.8522 52.8635 84.4637 53.0258C84.0753 53.1881 83.723 53.4259 83.4271 53.7255C83.1313 54.025 82.8979 54.3803 82.7405 54.7708C82.583 55.1612 82.5047 55.579 82.51 56C82.5087 56.4184 82.59 56.833 82.7492 57.22C82.9084 57.607 83.1424 57.9587 83.4379 58.2551C83.7333 58.5514 84.0843 58.7865 84.4707 58.947C84.8572 59.1074 85.2715 59.19 85.69 59.19H88.88M86.59 45.35H69.59C68.2391 45.3473 66.9445 44.8089 65.9902 43.8527C65.0359 42.8966 64.5 41.6009 64.5 40.25V31.54C64.5 31.2616 64.5548 30.9859 64.6614 30.7287C64.7679 30.4715 64.9241 30.2378 65.1209 30.0409C65.3178 29.8441 65.5515 29.6879 65.8087 29.5814C66.0659 29.4748 66.3416 29.42 66.62 29.42H82L86.59 45.35Z" stroke="#00008F" stroke-width="2" stroke-linecap="round" stroke-linejoin="round"/>
</svg>

<svg width="96" height="96" viewBox="0 0 96 96" fill="none" xmlns="http://www.w3.org/2000/svg"><path d="M28.62 64.46h34.52m-32.66 5.31h30.79-30.79zM21.99 78.26a8.49 8.49 0 100-16.98 8.49 8.49 0 000 16.98z" stroke="#00008F" stroke-width="2" stroke-linecap="round" stroke-linejoin="round"/><path d="M21.99 72.96a3.19 3.19 0 100-6.38 3.19 3.19 0 000 6.38zM69.77 78.26a8.49 8.49 0 100-16.98 8.49 8.49 0 000 16.98z" stroke="#00008F" stroke-width="2" stroke-linecap="round" stroke-linejoin="round"/><path d="M69.77 72.96a3.19 3.19 0 100-6.38 3.19 3.19 0 000 6.38zM78.26 69.77h10.09A2.66 2.66 0 0091 67.11a2.65 2.65 0 00-2.65-2.65h-12m-62.86 5.31H7.65A2.66 2.66 0 015 67.11a2.65 2.65 0 012.65-2.65h7.71m73.52 0V50.65l-5.69-18.49a12.9 12.9 0 00-12.34-9.11H57v41.41" stroke="#00008F" stroke-width="2" stroke-linecap="round" stroke-linejoin="round"/><path d="M7.12 64.46V23.05a5.31 5.31 0 015.31-5.31h39.29A5.3 5.3 0 0157 23.05m31.88 29.73h-3.19A3.181 3.181 0 0082.51 56a3.18 3.18 0 003.18 3.19h3.19m-2.29-13.84h-17a5.1 5.1 0 01-5.09-5.1v-8.71a2.119 2.119 0 012.12-2.12H82l4.59 15.93z" stroke="#00008F" stroke-width="2" stroke-linecap="round" stroke-linejoin="round"/></svg>
